static/assets/img/logos/developer/gulp.svg

<svg fill="none" height="48" viewBox="0 0 80 48" width="80" xmlns="http://www.w3.org/2000/svg"><g fill="#adb5bd"><path d="m21.0372 24.717c-.0563.0822-.1547.3382-.3001.7727-.1453.4345-.3212.9771-.5275 1.63s-.4314 1.3857-.6705 2.1936c-.2415.8079-.49 1.6347-.7432 2.4755-.2556.8431-.4994 1.6675-.7339 2.4778-.2344.8079-.4454 1.5407-.6306 2.1936s-.34 1.2002-.4642 1.6441c-.1243.4415-.1993.7022-.2275.7844-.0679.2607-.1781.5519-.3305.8713-.1524.3195-.3306.6201-.5369.9066-.2063.2866-.4338.5238-.6823.7117s-.504.2818-.7643.2818c-.4407 0-.7619-.148-.9612-.4415-.1993-.2936-.3001-.8338-.3001-1.6183v-.3429c0-.115.007-.2372.0211-.3663.014-.2607.1172-.7516.3095-1.4726.1922-.7187.4243-1.5314.6916-2.4403s.558-1.846.8674-2.8207c.3095-.9723.5885-1.8437.837-2.6117-.7314.8174-1.5215 1.63-2.3773 2.4403-.8534.8102-1.7302 1.536-2.6235 2.1818-.89559.6459-1.79822 1.1744-2.70789 1.5807-.90967.4086-1.78416.613-2.62349.613-.9636 0-1.79355-.2138-2.48987-.6365-.69631-.4251-1.27072-.9817-1.72555-1.6675-.454834-.6858-.792443-1.4632-1.012826-2.3299-.220383-.8666-.330574-1.7333-.330574-2.5999v-.3194c0-.0987.00703265-.195.0210997-.2936.0820573-1.5689.3071303-3.1801.6705283-4.8312.365742-1.6511.844022-3.2951 1.437182-4.9274.59316-1.6347 1.27775-3.2317 2.05613-4.7936.77837-1.5618 1.62474-3.0367 2.54144-4.42479.9167-1.38805 1.88967-2.66805 2.92359-3.83767 1.03393-1.16962 2.09363-2.17484 3.18153-3.01565 1.0878-.84081 2.1874-1.49843 3.2963-1.972855 1.109-.474425 2.2085-.711635 3.2964-.711635 1.2543 0 2.4664.342899 3.6363 1.0287 1.1699.6858 2.2648 1.79906 3.2847 3.33506.2344.3429.3821.6905.4431 1.0428.0609.35229.0938.68345.0938.99347 0 .73512-.1759 1.31524-.5275 1.74034-.3517.4251-.769.63648-1.2497.63648-.4407 0-.851-.23252-1.2285-.6999-.3798-.46503-.8018-1.13204-1.2707-1.99868-.4408-.78445-.9261-1.35282-1.4559-1.70511-.5299-.3523-1.1067-.5261-1.7256-.5261-.9636 0-1.9952.40162-3.0901 1.20251-1.0948.80088-2.1803 1.86011-3.2541 3.17535s-2.1054 2.81838-3.09008 4.51178c-.98469 1.691-1.85684 3.4243-2.61412 5.1975-.75727 1.7732-1.35981 3.5229-1.80761 5.2468s-.67053 3.274-.67053 4.648c0 .458.03048.9277.09378 1.4092.06331.4814.17819.9206.35168 1.3129.17115.3922.4056.7163.70335.9676.29541.2536.67053.3805 1.12536.3805.50876 0 1.08785-.1715 1.73493-.5144.64709-.3429 1.31994-.7915 2.01394-1.3481.6963-.5566 1.395-1.1861 2.0983-1.8883.7034-.7022 1.3575-1.4139 1.9624-2.1326.6048-.7187 1.1441-1.4091 1.6106-2.0715.4689-.6623.8206-1.2377 1.0527-1.7286l1.9225-5.7612c.2345-.62.5416-1.0615.9191-1.3246.3798-.2607.769-.3922 1.1675-.3922.1923 0 .3845.0329.5791.0986.1923.0658.3658.1668.5158.3077.1524.1386.272.3194.3611.5402.089.2208.1336.4791.1336.7727 0 .7844-.068 1.5196-.2063 2.2077-.1383.6882-.3142 1.3575-.5275 2.0104-.2134.653-.4502 1.3129-.7128 1.9729-.2579.6576-.5134 1.3481-.7596 2.0691zm26.0568 4.8053c-.6072.8174-1.3129 1.6136-2.1171 2.391-.8065.7774-1.6364 1.4679-2.4898 2.0715s-1.6951 1.0897-2.5204 1.4585c-.8276.3687-1.5708.5519-2.2319.5519-.6612 0-1.1981-.2208-1.6131-.6623-.4126-.4416-.6189-1.1931-.6189-2.2571 0-.7515.1102-1.6276.3306-2.6234-.3587.6388-.8065 1.2847-1.3434 1.9376s-1.1512 1.2495-1.8405 1.7897c-.6892.5402-1.4606.977-2.314 1.3105-.8534.3359-1.7842.5026-2.7899.5026-.4549 0-.8933-.0563-1.313-.1714-.4196-.1151-.7877-.31-1.1042-.5872-.3165-.2771-.5721-.6482-.7643-1.1156-.1923-.465-.2884-1.0498-.2884-1.7521 0-.0164.0281-.2653.082-.7468.054-.4815.2298-1.2425.5276-2.2805.2954-1.0381.7549-2.3816 1.3738-4.0327.6213-1.651 1.4958-3.6521 2.6235-6.0078.2884-.62.6237-1.0662 1.0011-1.3363.3799-.2701.7878-.404 1.2286-.404.1922 0 .3915.0282.6002.0845.2063.0588.3985.148.579.2701.1782.1222.3236.2772.4338.4651s.1664.4039.1664.6505c0 .1644-.0211.3195-.0633.4651-.068.2795-.2157.6412-.4454 1.0921-.2274.4509-.4924.9653-.7948 1.5454s-.6236 1.2048-.9612 1.8765c-.3377.6694-.6518 1.3646-.9402 2.0833s-.5369 1.4514-.7432 2.1936c-.2063.7445-.3235 1.4679-.3517 2.1702 0 .2935.068.5636.2063.8102.1384.2443.3658.3688.6823.3688.8956 0 1.749-.2936 2.5625-.8831.8136-.5872 1.5638-1.32 2.2531-2.1936.6893-.8737 1.3129-1.8132 1.8709-2.8208.558-1.0052 1.0246-1.9235 1.395-2.7573.2626-.5566.4923-1.1531.6916-1.7896s.4173-1.226.6518-1.7662c.2344-.5402.5017-.9888.8065-1.3481.3024-.3593.6822-.5402 1.1371-.5402.4947 0 .8885.1879 1.1769.5637s.4338.8267.4338 1.3481c0 .2936-.0915.6999-.279 1.2142-.1876.5144-.4197 1.1039-.7034 1.7662-.2813.6623-.5885 1.3693-.919 2.1208-.3306.7516-.6377 1.5173-.9191 2.2923-.2837.7774-.5158 1.536-.7033 2.2805-.1853.7445-.279 1.435-.279 2.0715 0 .5895.3024.8831.9096.8831.4267 0 .9566-.148 1.592-.4415.6353-.2936 1.2988-.707 1.9951-1.2378s1.3903-1.1555 2.0866-1.8765c.6963-.7187 1.313-1.4961 1.8498-2.3299z"/><path d="m47.9651 28.4202c-.1493.381-.2939.8239-.4363 1.3311-.1423.5049-.2112.9573-.2112 1.355 0 .2476.0413.4477.1217.5977.0803.15.2365.2238.4661.2238.2824 0 .636-.1024 1.0631-.3119.4247-.2072.8839-.481 1.3753-.8216.4937-.3381 1.0057-.7286 1.5384-1.1692.5327-.4381 1.063-.8953 1.5888-1.3668.5258-.4739 1.0287-.9454 1.5086-1.4169.4798-.4738.9069-.9072 1.2858-1.3049.1079-.1167.2365-.2.3834-.2477.1469-.05.2755-.0738.3834-.0738.2687 0 .4937.1167.6682.3477s.2617.5381.2617.9192c0 .3476-.0941.7381-.2824 1.1692-.1882.431-.5189.8548-.9919 1.2668-.8633.9787-1.7335 1.905-2.6106 2.7837s-1.7496 1.6526-2.6198 2.3241-1.7335 1.2049-2.59 1.605c-.8564.3977-1.6899.5953-2.5004.5953-.5533 0-1.0148-.0905-1.3868-.2738-.372-.1834-.6682-.4311-.8909-.7454s-.3811-.6882-.4753-1.1192c-.0941-.431-.1423-.8858-.1423-1.3668 0-.812.0987-1.6455.2939-2.498.1951-.8525.427-1.6359.698-2.3479.473-1.293.9505-2.5765 1.4373-3.8529.4845-1.2764.9299-2.4456 1.3363-3.5052l6.1305-16.03548c.2434-.64532.5694-1.10253.9827-1.36685.411-.26432.8266-.39767 1.2445-.39767s.799.14049 1.1434.42148c.3445.28099.5167.7382.5167 1.36685 0 .29766-.0574.61437-.1722.94536-.1149.331-.2595.68819-.434 1.06919-.3375.77868-.7393 1.73119-1.2031 2.85752-.4661 1.1263-.9644 2.3527-1.4971 3.6791-.5327 1.3263-1.0791 2.7051-1.6394 4.1386-.5602 1.4335-1.1067 2.829-1.6394 4.1887-.5326 1.3597-1.0309 2.6479-1.497 3.8648-.4707 1.2192-.8725 2.2765-1.2077 3.1718z"/><path d="m77.7269 23.6172c.197-.1337.382-.2412.5502-.3248.1681-.0836.3315-.1242.4877-.1242.3099 0 .5429.1385.6991.4108.1561.2746.233.6113.233 1.0102 0 .4322-.0937.8716-.2859 1.3206-.1898.4489-.4757.8215-.8576 1.1224-1.5112 1.3302-2.859 2.5433-4.0434 3.6395-1.1868 1.0961-2.3039 2.0394-3.3562 2.8299-1.0523.7904-2.0781 1.3994-3.0799 1.8316-1.0018.4323-2.0757.6472-3.2193.6472-1.0739 0-1.9027-.234-2.4889-.6973-.5862-.4657-.8793-1.1057-.8793-1.92v-.1863c0-.0573.0072-.129.0216-.2126.0552-.4991.2763-1.0722.6559-1.7194.3819-.6472.8408-1.3206 1.3766-2.0203.5357-.6997 1.1075-1.4042 1.7153-2.1183.6078-.714 1.1676-1.3922 1.6841-2.0323.5141-.64.9418-1.2251 1.2805-1.7576.3388-.5326.5093-.9624.5093-1.2967 0-.2006-.072-.3583-.2114-.4729-.1417-.117-.3748-.1743-.6991-.1743-.5646 0-1.1459.1456-1.7466.437-.6006.2913-1.194.6806-1.7778 1.1702-.5862.4895-1.158 1.0507-1.7153 1.6836-.5574.6328-1.0787 1.2872-1.5664 1.9702s-.9322 1.366-1.3334 2.0561c-.4012.6902-.7447 1.3254-1.0258 1.9081-.0841.1839-.2042.4418-.3604.7738-.1561.3319-.3243.7069-.5069 1.1224-.185.4155-.3772.843-.5838 1.2824-.2042.4418-.3916.8573-.5598 1.2466-.1705.3916-.3219.7379-.4564 1.0484-.1346.308-.2307.5182-.2859.6352-.0721.1505-.1874.4323-.3508.8478-.1633.4155-.3483.9003-.5622 1.4591-.2114.5564-.4348 1.1415-.6654 1.7577-.2331.6161-.4517 1.1964-.6559 1.7457-.2042.5492-.3844 1.0292-.5406 1.4448-.1561.4155-.2546.6973-.2979.8478-.1417.4322-.3075.8382-.4973 1.2227-.1898.3821-.4084.7188-.6558 1.0101-.2475.2914-.5286.523-.8481.6974-.3171.1743-.6751.2603-1.0691.2603-.5093 0-.9273-.1218-1.2613-.3606-.3315-.2412-.4973-.7021-.4973-1.3828 0-.3319.0433-.6734.1274-1.0221.084-.3486.1921-.6949.3171-1.034.1273-.3415.257-.6735.3916-.9959.1345-.3247.257-.6352.37-.9361.7615-1.6621 1.5399-3.329 2.3303-4.9983.7904-1.6717 1.5496-3.3242 2.2751-4.9625.728-1.6358 1.4007-3.2454 2.0229-4.824.6198-1.5785 1.1364-3.0926 1.5448-4.5374.1129-.2985.2691-.7236.4661-1.2728.197-.5493.4228-1.089.6774-1.6215.2547-.5326.5406-.9935.8577-1.3828.3171-.3916.6607-.585 1.0259-.585.5645 0 .973.1289 1.2276.3868.2547.2579.382.6353.382 1.1344 0 .1003-.0144.2579-.0432.4728-.0289.215-.0649.4442-.1058.6854-.0432.2412-.0888.4705-.1369.6854-.0504.2149-.0961.3725-.1369.4728.5213-.5659 1.0859-1.1248 1.6937-1.6836.6078-.5564 1.2349-1.0603 1.8859-1.5093.6487-.4489 1.3118-.8143 1.9892-1.0985.6775-.2818 1.355-.4227 2.0325-.4227.4661 0 .9274.0669 1.3862.2006.4589.1338.8673.3272 1.2277.5851.3603.2579.6534.5827.8793.972.2258.3916.3387.843.3387 1.3588 0 .683-.173 1.409-.5189 2.1827-.346.7738-.7808 1.5499-1.3021 2.3308-.5238.7809-1.0883 1.5427-1.6938 2.2807-.6078.7403-1.1748 1.4137-1.7057 2.0203-.5285.6066-.973 1.1224-1.3334 1.5451-.3603.4251-.5477.7117-.5621.8597 0 .2006.0648.3606.1898.4872.1249.1266.3387.1863.6366.1863.2403 0 .5934-.1338 1.0595-.3988.4661-.2651 1.1195-.726 1.958-1.3828.8384-.6567 1.9051-1.5379 3.1976-2.6436 1.2926-1.1033 2.8854-2.4956 4.7761-4.1744z"/></g></svg>

<svg  width="80" height="48" viewBox="0 0 80 48" fill="none" xmlns="http://www.w3.org/2000/svg">
<path d="M21.0372 24.717C20.9809 24.7992 20.8825 25.0552 20.7371 25.4897C20.5918 25.9242 20.4159 26.4668 20.2096 27.1197C20.0033 27.7726 19.7782 28.5054 19.5391 29.3133C19.2976 30.1212 19.0491 30.948 18.7959 31.7888C18.5403 32.6319 18.2965 33.4563 18.062 34.2666C17.8276 35.0745 17.6166 35.8073 17.4314 36.4602C17.2462 37.1131 17.0914 37.6604 16.9672 38.1043C16.8429 38.5458 16.7679 38.8065 16.7397 38.8887C16.6718 39.1494 16.5616 39.4406 16.4092 39.76C16.2568 40.0795 16.0786 40.3801 15.8723 40.6666C15.666 40.9532 15.4385 41.1904 15.19 41.3783C14.9415 41.5662 14.686 41.6601 14.4257 41.6601C13.985 41.6601 13.6638 41.5121 13.4645 41.2186C13.2652 40.925 13.1644 40.3848 13.1644 39.6003V39.2574C13.1644 39.1424 13.1714 39.0202 13.1855 38.8911C13.1995 38.6304 13.3027 38.1395 13.495 37.4185C13.6872 36.6998 13.9193 35.8871 14.1866 34.9782C14.4539 34.0693 14.7446 33.1322 15.054 32.1575C15.3635 31.1852 15.6425 30.3138 15.891 29.5458C15.1596 30.3632 14.3695 31.1758 13.5137 31.9861C12.6603 32.7963 11.7835 33.5221 10.8902 34.1679C9.99461 34.8138 9.09198 35.3423 8.18231 35.7486C7.27264 36.1572 6.39815 36.3616 5.55882 36.3616C4.59522 36.3616 3.76527 36.1478 3.06895 35.7251C2.37264 35.3 1.79823 34.7434 1.3434 34.0576C0.888566 33.3718 0.550957 32.5944 0.330574 31.7277C0.110191 30.8611 0 29.9944 0 29.1278V28.8084C0 28.7097 0.00703265 28.6134 0.0210997 28.5148C0.103157 26.9459 0.32823 25.3347 0.691628 23.6836C1.05737 22.0325 1.53565 20.3885 2.12881 18.7562C2.72197 17.1215 3.40656 15.5245 4.18494 13.9626C4.96331 12.4008 5.80968 10.9259 6.72638 9.53781C7.64308 8.14976 8.61605 6.86976 9.64997 5.70014C10.6839 4.53052 11.7436 3.5253 12.8315 2.68449C13.9193 1.84368 15.0189 1.18606 16.1278 0.711635C17.2368 0.23721 18.3363 0 19.4242 0C20.6785 0 21.8906 0.342899 23.0605 1.0287C24.2304 1.7145 25.3253 2.82776 26.3452 4.36376C26.5796 4.70666 26.7273 5.05426 26.7883 5.40656C26.8492 5.75885 26.8821 6.09001 26.8821 6.40003C26.8821 7.13515 26.7062 7.71527 26.3546 8.14037C26.0029 8.56547 25.5856 8.77685 25.1049 8.77685C24.6642 8.77685 24.2539 8.54433 23.8764 8.07695C23.4966 7.61192 23.0746 6.94491 22.6057 6.07827C22.1649 5.29382 21.6796 4.72545 21.1498 4.37316C20.6199 4.02086 20.0431 3.84706 19.4242 3.84706C18.4606 3.84706 17.429 4.24868 16.3341 5.04957C15.2393 5.85045 14.1538 6.90968 13.08 8.22492C12.0062 9.54016 10.9746 11.0433 9.98992 12.7367C9.00523 14.4277 8.13308 16.161 7.3758 17.9342C6.61853 19.7074 6.01599 21.4571 5.56819 23.181C5.12039 24.9049 4.89766 26.455 4.89766 27.829C4.89766 28.287 4.92814 28.7567 4.99144 29.2382C5.05475 29.7196 5.16963 30.1588 5.34312 30.5511C5.51427 30.9433 5.74872 31.2674 6.04647 31.5187C6.34188 31.7723 6.717 31.8992 7.17183 31.8992C7.68059 31.8992 8.25968 31.7277 8.90676 31.3848C9.55385 31.0419 10.2267 30.5933 10.9207 30.0367C11.617 29.4801 12.3157 28.8506 13.019 28.1484C13.7224 27.4462 14.3765 26.7345 14.9814 26.0158C15.5862 25.2971 16.1255 24.6067 16.592 23.9443C17.0609 23.282 17.4126 22.7066 17.6447 22.2157L19.5672 16.4545C19.8017 15.8345 20.1088 15.393 20.4863 15.1299C20.8661 14.8692 21.2553 14.7377 21.6538 14.7377C21.8461 14.7377 22.0383 14.7706 22.2329 14.8363C22.4252 14.9021 22.5987 15.0031 22.7487 15.144C22.9011 15.2826 23.0207 15.4634 23.1098 15.6842C23.1988 15.905 23.2434 16.1633 23.2434 16.4569C23.2434 17.2413 23.1754 17.9765 23.0371 18.6646C22.8988 19.3528 22.7229 20.0221 22.5096 20.675C22.2962 21.328 22.0594 21.9879 21.7968 22.6479C21.5389 23.3055 21.2834 23.996 21.0372 24.717ZM47.094 29.5223C46.4868 30.3397 45.7811 31.1359 44.9769 31.9133C44.1704 32.6907 43.3405 33.3812 42.4871 33.9848C41.6337 34.5884 40.792 35.0745 39.9667 35.4433C39.1391 35.812 38.3959 35.9952 37.7348 35.9952C37.0736 35.9952 36.5367 35.7744 36.1217 35.3329C35.7091 34.8913 35.5028 34.1398 35.5028 33.0758C35.5028 32.3243 35.613 31.4482 35.8334 30.4524C35.4747 31.0912 35.0269 31.7371 34.49 32.39C33.9531 33.0429 33.3388 33.6395 32.6495 34.1797C31.9603 34.7199 31.1889 35.1567 30.3355 35.4902C29.4821 35.8261 28.5513 35.9928 27.5456 35.9928C27.0907 35.9928 26.6523 35.9365 26.2326 35.8214C25.813 35.7063 25.4449 35.5114 25.1284 35.2342C24.8119 34.9571 24.5563 34.586 24.3641 34.1186C24.1718 33.6536 24.0757 33.0688 24.0757 32.3665C24.0757 32.3501 24.1038 32.1012 24.1577 31.6197C24.2117 31.1382 24.3875 30.3772 24.6853 29.3392C24.9807 28.3011 25.4402 26.9576 26.0591 25.3065C26.6804 23.6555 27.5549 21.6544 28.6826 19.2987C28.971 18.6787 29.3063 18.2325 29.6837 17.9624C30.0636 17.6923 30.4715 17.5584 30.9123 17.5584C31.1045 17.5584 31.3038 17.5866 31.5125 17.6429C31.7188 17.7017 31.911 17.7909 32.0915 17.913C32.2697 18.0352 32.4151 18.1902 32.5253 18.3781C32.6355 18.566 32.6917 18.782 32.6917 19.0286C32.6917 19.193 32.6706 19.3481 32.6284 19.4937C32.5604 19.7732 32.4127 20.1349 32.183 20.5858C31.9556 21.0367 31.6906 21.5511 31.3882 22.1312C31.0858 22.7113 30.7646 23.336 30.427 24.0077C30.0893 24.6771 29.7752 25.3723 29.4868 26.091C29.1984 26.8097 28.9499 27.5424 28.7436 28.2846C28.5373 29.0291 28.4201 29.7525 28.3919 30.4548C28.3919 30.7483 28.4599 31.0184 28.5982 31.265C28.7366 31.5093 28.964 31.6338 29.2805 31.6338C30.1761 31.6338 31.0295 31.3402 31.843 30.7507C32.6566 30.1635 33.4068 29.4307 34.0961 28.5571C34.7854 27.6834 35.409 26.7439 35.967 25.7363C36.525 24.7311 36.9916 23.8128 37.362 22.979C37.6246 22.4224 37.8543 21.8259 38.0536 21.1894C38.2529 20.5529 38.4709 19.9634 38.7054 19.4232C38.9398 18.883 39.2071 18.4344 39.5119 18.0751C39.8143 17.7158 40.1941 17.5349 40.649 17.5349C41.1437 17.5349 41.5375 17.7228 41.8259 18.0986C42.1143 18.4744 42.2597 18.9253 42.2597 19.4467C42.2597 19.7403 42.1682 20.1466 41.9807 20.6609C41.7931 21.1753 41.561 21.7648 41.2773 22.4271C40.996 23.0894 40.6888 23.7964 40.3583 24.5479C40.0277 25.2995 39.7206 26.0652 39.4392 26.8402C39.1555 27.6176 38.9234 28.3762 38.7359 29.1207C38.5506 29.8652 38.4569 30.5557 38.4569 31.1922C38.4569 31.7817 38.7593 32.0753 39.3665 32.0753C39.7932 32.0753 40.3231 31.9273 40.9585 31.6338C41.5938 31.3402 42.2573 30.9268 42.9536 30.396C43.6499 29.8652 44.3439 29.2405 45.0402 28.5195C45.7365 27.8008 46.3532 27.0234 46.89 26.1896L47.094 29.5223Z" fill="#ADB5BD"/>
<path d="M47.9651 28.4202C47.8158 28.8012 47.6712 29.2441 47.5288 29.7513C47.3865 30.2562 47.3176 30.7086 47.3176 31.1063C47.3176 31.3539 47.3589 31.554 47.4393 31.704C47.5196 31.854 47.6758 31.9278 47.9054 31.9278C48.1878 31.9278 48.5414 31.8254 48.9685 31.6159C49.3932 31.4087 49.8524 31.1349 50.3438 30.7943C50.8375 30.4562 51.3495 30.0657 51.8822 29.6251C52.4149 29.187 52.9452 28.7298 53.471 28.2583C53.9968 27.7844 54.4997 27.3129 54.9796 26.8414C55.4594 26.3676 55.8865 25.9342 56.2654 25.5365C56.3733 25.4198 56.5019 25.3365 56.6488 25.2888C56.7957 25.2388 56.9243 25.215 57.0322 25.215C57.3009 25.215 57.5259 25.3317 57.7004 25.5627C57.8749 25.7937 57.9621 26.1008 57.9621 26.4819C57.9621 26.8295 57.868 27.22 57.6797 27.6511C57.4915 28.0821 57.1608 28.5059 56.6878 28.9179C55.8245 29.8966 54.9543 30.8229 54.0772 31.7016C53.2001 32.5803 52.3276 33.3542 51.4574 34.0257C50.5872 34.6972 49.7239 35.2306 48.8674 35.6307C48.011 36.0284 47.1775 36.226 46.367 36.226C45.8137 36.226 45.3522 36.1355 44.9802 35.9522C44.6082 35.7688 44.312 35.5211 44.0893 35.2068C43.8666 34.8925 43.7082 34.5186 43.614 34.0876C43.5199 33.6566 43.4717 33.2018 43.4717 32.7208C43.4717 31.9088 43.5704 31.0753 43.7656 30.2228C43.9607 29.3703 44.1926 28.5869 44.4636 27.8749C44.9366 26.5819 45.4141 25.2984 45.9009 24.022C46.3854 22.7456 46.8308 21.5764 47.2372 20.5168L53.3677 4.48132C53.6111 3.836 53.9371 3.37879 54.3504 3.11447C54.7614 2.85015 55.177 2.7168 55.5949 2.7168C56.0128 2.7168 56.3939 2.85729 56.7383 3.13828C57.0828 3.41927 57.255 3.87648 57.255 4.50513C57.255 4.80279 57.1976 5.1195 57.0828 5.45049C56.9679 5.78149 56.8233 6.13868 56.6488 6.51968C56.3113 7.29836 55.9095 8.25087 55.4457 9.3772C54.9796 10.5035 54.4813 11.7299 53.9486 13.0563C53.4159 14.3826 52.8695 15.7614 52.3092 17.1949C51.749 18.6284 51.2025 20.0239 50.6698 21.3836C50.1372 22.7433 49.6389 24.0315 49.1728 25.2484C48.7021 26.4676 48.3003 27.5249 47.9651 28.4202Z" fill="#ADB5BD"/>
<path d="M77.7269 23.6172C77.9239 23.4835 78.1089 23.376 78.2771 23.2924C78.4452 23.2088 78.6086 23.1682 78.7648 23.1682C79.0747 23.1682 79.3077 23.3067 79.4639 23.579C79.62 23.8536 79.6969 24.1903 79.6969 24.5892C79.6969 25.0214 79.6032 25.4608 79.411 25.9098C79.2212 26.3587 78.9353 26.7313 78.5534 27.0322C77.0422 28.3624 75.6944 29.5755 74.51 30.6717C73.3232 31.7678 72.2061 32.7111 71.1538 33.5016C70.1015 34.292 69.0757 34.901 68.0739 35.3332C67.0721 35.7655 65.9982 35.9804 64.8546 35.9804C63.7807 35.9804 62.9519 35.7464 62.3657 35.2831C61.7795 34.8174 61.4864 34.1774 61.4864 33.3631V33.1768C61.4864 33.1195 61.4936 33.0478 61.508 32.9642C61.5632 32.4651 61.7843 31.892 62.1639 31.2448C62.5458 30.5976 63.0047 29.9242 63.5405 29.2245C64.0762 28.5248 64.648 27.8203 65.2558 27.1062C65.8636 26.3922 66.4234 25.714 66.9399 25.0739C67.454 24.4339 67.8817 23.8488 68.2204 23.3163C68.5592 22.7837 68.7297 22.3539 68.7297 22.0196C68.7297 21.819 68.6577 21.6613 68.5183 21.5467C68.3766 21.4297 68.1435 21.3724 67.8192 21.3724C67.2546 21.3724 66.6733 21.518 66.0726 21.8094C65.472 22.1007 64.8786 22.49 64.2948 22.9796C63.7086 23.4691 63.1368 24.0303 62.5795 24.6632C62.0221 25.296 61.5008 25.9504 61.0131 26.6334C60.5254 27.3164 60.0809 27.9994 59.6797 28.6895C59.2785 29.3797 58.935 30.0149 58.6539 30.5976C58.5698 30.7815 58.4497 31.0394 58.2935 31.3714C58.1374 31.7033 57.9692 32.0783 57.7866 32.4938C57.6016 32.9093 57.4094 33.3368 57.2028 33.7762C56.9986 34.218 56.8112 34.6335 56.643 35.0228C56.4725 35.4144 56.3211 35.7607 56.1866 36.0712C56.052 36.3792 55.9559 36.5894 55.9007 36.7064C55.8286 36.8569 55.7133 37.1387 55.5499 37.5542C55.3866 37.9697 55.2016 38.4545 54.9877 39.0133C54.7763 39.5697 54.5529 40.1548 54.3223 40.771C54.0892 41.3871 53.8706 41.9674 53.6664 42.5167C53.4622 43.0659 53.282 43.5459 53.1258 43.9615C52.9697 44.377 52.8712 44.6588 52.8279 44.8093C52.6862 45.2415 52.5204 45.6475 52.3306 46.032C52.1408 46.4141 51.9222 46.7508 51.6748 47.0421C51.4273 47.3335 51.1462 47.5651 50.8267 47.7395C50.5096 47.9138 50.1516 47.9998 49.7576 47.9998C49.2483 47.9998 48.8303 47.878 48.4963 47.6392C48.1648 47.398 47.999 46.9371 47.999 46.2564C47.999 45.9245 48.0423 45.583 48.1264 45.2343C48.2104 44.8857 48.3185 44.5394 48.4435 44.2003C48.5708 43.8588 48.7005 43.5268 48.8351 43.2044C48.9696 42.8797 49.0921 42.5692 49.2051 42.2683C49.9666 40.6062 50.745 38.9393 51.5354 37.27C52.3258 35.5983 53.085 33.9458 53.8105 32.3075C54.5385 30.6717 55.2112 29.0621 55.8334 27.4835C56.4532 25.905 56.9698 24.3909 57.3782 22.9461C57.4911 22.6476 57.6473 22.2225 57.8443 21.6733C58.0413 21.124 58.2671 20.5843 58.5217 20.0518C58.7764 19.5192 59.0623 19.0583 59.3794 18.669C59.6965 18.2774 60.0401 18.084 60.4053 18.084C60.9698 18.084 61.3783 18.2129 61.6329 18.4708C61.8876 18.7287 62.0149 19.1061 62.0149 19.6052C62.0149 19.7055 62.0005 19.8631 61.9717 20.078C61.9428 20.293 61.9068 20.5222 61.8659 20.7634C61.8227 21.0046 61.7771 21.2339 61.729 21.4488C61.6786 21.6637 61.6329 21.8213 61.5921 21.9216C62.1134 21.3557 62.678 20.7968 63.2858 20.238C63.8936 19.6816 64.5207 19.1777 65.1717 18.7287C65.8204 18.2798 66.4835 17.9144 67.1609 17.6302C67.8384 17.3484 68.5159 17.2075 69.1934 17.2075C69.6595 17.2075 70.1208 17.2744 70.5796 17.4081C71.0385 17.5419 71.4469 17.7353 71.8073 17.9932C72.1676 18.2511 72.4607 18.5759 72.6866 18.9652C72.9124 19.3568 73.0253 19.8082 73.0253 20.324C73.0253 21.007 72.8523 21.733 72.5064 22.5067C72.1604 23.2805 71.7256 24.0566 71.2043 24.8375C70.6805 25.6184 70.116 26.3802 69.5105 27.1182C68.9027 27.8585 68.3357 28.5319 67.8048 29.1385C67.2763 29.7451 66.8318 30.2609 66.4714 30.6836C66.1111 31.1087 65.9237 31.3953 65.9093 31.5433C65.9093 31.7439 65.9741 31.9039 66.0991 32.0305C66.224 32.1571 66.4378 32.2168 66.7357 32.2168C66.976 32.2168 67.3291 32.083 67.7952 31.818C68.2613 31.5529 68.9147 31.092 69.7532 30.4352C70.5916 29.7785 71.6583 28.8973 72.9508 27.7916C74.2434 26.6883 75.8362 25.296 77.7269 23.6172Z" fill="#ADB5BD"/>
</svg>
